X:1
T:Title
%%score { ( 1 3 ) | ( 2 4 ) }
L:1/8
M:4/4
K:D
V:1 treble nm="Grand Piano"
V:3 treble 
V:2 treble 
V:4 treble 
V:1
 z4 z2[Q:1/4=100] A>d | [Fc]2 [DFB]>[DF^A] [FB]2 F>[Fc] | z2 A2 z4 | [EG]>F [EG]>A [Gc]>B [Gc]>e | %4
 [GB]2 [A,FA]2 [A,FA]2 A>d | [Fc]2 [DFB]>[DF^A] [GB]2 F>[Fc] | z2 A2 z4 | %7
 [Ec]>A [Fd]>c [Ec]>B E>B |[M:3/4] [CA]6 |[M:1/4] A>A |[M:4/4] [FAd]2 [FAd]2 [FAd]2 [FAc]>[FB] | %11
 [A,DF]>[DF] [A,DF]>=F ^F2 A>A | [FAd]2 [FAd]2 [FAd]2 [FAc]>[FB] | [A,CG]>[CG] [A,CG]>F G2 E>F | %14
 [EG]>F G>A [Gc]>B [Gc]>e | [GB]2 [A,FA]2 [A,FA]2 [=CFA]>[CFA] | %16
 [FA]2 [EG]2 [DF]2[K:bass] [G,CE]2 |[M:3/4] [F,A,D]6 |] %18
V:2
 z4 z2 F>F | D,,2 [D,F,]2 [D,F,D]2 D>D | D,,2 [D,F,D]2 [D,F,]2[K:treble] D>F | %3
 z z/ ^D/ z z/ F/ z z/[K:treble] G/ z z/ G/ | D,,2 D,2 D,2[K:treble] F>F | %5
 D,,2 [D,F,]2 [D,F,D]2 D>D | D,,2 [D,F,D]2 [D,F,]2[K:treble] F>F | z z/ C/ z z/ E/ z z/ D/ D>D | %8
[M:3/4] A,,2 E,2 A,,2 |[M:1/4][K:treble] F>F |[M:4/4][K:bass] D,,2 [F,A,D]2 [F,A,D]2 z z/ D/ | %11
 z z/ A,/ D,2 [D,A,D]2[K:treble] F>F | D,,2 [F,A,D]2 [F,A,D]2 z z/ D/ | z z/ A,/ E,2 [E,A,C]2 C>D | %14
 z z/ ^D/ E>F z z/[K:treble] G/ z z/ G/ | D,,2 D,2 D,2 [D,,D,]2 | %16
 [^D,,^D,]2 [E,,E,]2 [A,,A,]2 [A,,,A,,]2 |[M:3/4] [D,,D,]2 A,,2 D,,2 |] %18
V:3
 x8 | x8 | [DFB]2 F->[F^G] [FA]2 F>A | x8 | x8 | x8 | [DFB]2 F->[F^G] [FA]2 A>B | x8 | %8
[M:3/4] z2 A,2 z2 |[M:1/4] x2 |[M:4/4] x8 | x8 | x8 | x8 | x8 | x8 | B,4 z4[K:bass] |[M:3/4] x6 |] %18
V:4
 x8 | x8 | x6[K:treble] x2 | A,,2 [C,A,]2 A,,2[K:treble] [E,A,]2 | x6[K:treble] x2 | x8 | %6
 x6[K:treble] x2 | E,,2 [E,A,]2 E,,2 [E,^G,]2 |[M:3/4] x6 |[M:1/4][K:treble] x2 | %10
[M:4/4][K:bass] z4 z2 D,2 | D,,2 z2 z4[K:treble] | z4 z2 D,2 | E,,2 z2 z4 | %14
 A,,2 [E,A,C]2 A,,2[K:treble] [E,A,C]2 | x8 | x8 |[M:3/4] x6 |] %18

